_src/static/img/icon/arrow-filter.svg

<svg width="22" height="26" viewBox="0 0 22 26" fill="none" xmlns="http://www.w3.org/2000/svg">
<path fill-rule="evenodd" clip-rule="evenodd" d="M16.17 21.5812V2.00307C16.17 1.44909 16.6139 1 17.17 1C17.7223 1 18.17 1.44912 18.17 2.00307V21.5845L19.2995 20.455C19.6864 20.0681 20.3139 20.0683 20.7072 20.4615C21.0977 20.8521 21.0954 21.4875 20.7137 21.8692L17.8722 24.7107C17.6798 24.9031 17.4279 24.9998 17.1749 25L17.1673 24.997C16.9134 24.9965 16.6608 24.9005 16.471 24.7107L13.6296 21.8692C13.2426 21.4823 13.2428 20.8548 13.6361 20.4615C14.0266 20.071 14.6621 20.0733 15.0438 20.455L16.17 21.5812ZM5.83 4.41877V23.9969C5.83 24.5509 5.38614 25 4.83 25C4.27772 25 3.83 24.5509 3.83 23.9969V4.41553L2.70054 5.54499C2.31362 5.93191 1.68609 5.93172 1.29285 5.53847C0.902322 5.14795 0.904627 4.51248 1.28633 4.13078L4.12779 1.28931C4.32019 1.09692 4.57207 1.00024 4.82505 1L4.83268 1.00299C5.08665 1.00353 5.33918 1.09952 5.52897 1.28931L8.37043 4.13078C8.75736 4.5177 8.75716 5.14522 8.36391 5.53847C7.97339 5.92899 7.33792 5.92669 6.95622 5.54499L5.83 4.41877Z" fill="#1B3ACD" stroke="#1B3ACD"/>
</svg>

<svg width="22" height="26" fill="none" xmlns="http://www.w3.org/2000/svg"><path fill-rule="evenodd" clip-rule="evenodd" d="M16.17 21.581V2.003a1 1 0 112 0v19.581l1.13-1.129a.993.993 0 011.407.007 1 1 0 01.007 1.407l-2.842 2.842a.984.984 0 01-.697.289l-.008-.003a.985.985 0 01-.696-.286l-2.841-2.842a.993.993 0 01.006-1.407 1 1 0 011.408-.007l1.126 1.126zM5.83 4.42v19.578a1 1 0 11-2 0V4.416L2.7 5.545a.993.993 0 01-1.407-.007 1 1 0 01-.007-1.407l2.842-2.842A.984.984 0 014.825 1l.008.003c.254 0 .506.097.696.286L8.37 4.131a.993.993 0 01-.006 1.407 1 1 0 01-1.408.007L5.83 4.419z" fill="#1B3ACD" stroke="#1B3ACD"/></svg>
